X: 4336
T: Boil The Cabbage Down
R: reel
M: 4/4
K: Fmajor
F>B|A>F FA|B2 GB|A>F FA|G>E C>B|A>F FA|B2 GB|A>F G>E|F3||B|
A<c cv|d2 c>B|A2 FA|GE C>B|A<c cf|d2 cB|A<F G>E|F3||

